X: 1
T:N°81 "Allegro Ma non troppo"
N:page 100
S:Manuscrit Wandembrile (1778), Archives de l'Etat à Namur
Z:ABC transcription Olivier VIENNE troubadourwallon@gmail.com
K:Gmaj
M:2/4
L:1/16
"Allegro ma non troppo"g4 d4|BcBA G2d2|g2d2c2B2|A6 A2|B2Bd c2ce|defg a2g2|f2ed e2dc|d4 D4:|
|:d4 AGAB|c4 c2dc|B2AB c2B2|AGFE D2D2|G2GB A2Ac|Bgfe d2c2|Bcdc B2A2|G4 [G,G]4:|]





